billpay/payment.svg

<svg width="48" height="48" viewBox="0 0 48 48" fill="none" xmlns="http://www.w3.org/2000/svg">
<mask id="mask0_3027_21351" style="mask-type:alpha" maskUnits="userSpaceOnUse" x="0" y="0" width="48" height="48">
<rect width="48" height="48" fill="#D9D9D9"/>
</mask>
<g mask="url(#mask0_3027_21351)">
<mask id="mask1_3027_21351" style="mask-type:alpha" maskUnits="userSpaceOnUse" x="0" y="0" width="48" height="48">
<rect width="48" height="48" fill="#D9D9D9"/>
</mask>
<g mask="url(#mask1_3027_21351)">
<path d="M8 40C6.9 40 5.95833 39.6083 5.175 38.825C4.39167 38.0417 4 37.1 4 36V12C4 10.9 4.39167 9.95833 5.175 9.175C5.95833 8.39167 6.9 8 8 8H40C41.1 8 42.0417 8.39167 42.825 9.175C43.6083 9.95833 44 10.9 44 12V36C44 37.1 43.6083 38.0417 42.825 38.825C42.0417 39.6083 41.1 40 40 40H8ZM8 24H40V16H8V24Z" fill="white"/>
</g>
</g>
</svg>

<svg width="48" height="48" viewBox="0 0 48 48" fill="none" xmlns="http://www.w3.org/2000/svg"><path d="M8 40q-1.65 0-2.825-1.175T4 36V12q0-1.65 1.175-2.825T8 8h32q1.65 0 2.825 1.175T44 12v24q0 1.65-1.175 2.825T40 40zm0-16h32v-8H8z" fill="#fff"/></svg>
